build/svg/cmd/32/ungroup.svg

<?xml version="1.0" encoding="UTF-8" standalone="no"?>
<svg
   xmlns:dc="http://purl.org/dc/elements/1.1/"
   xmlns:cc="http://creativecommons.org/ns#"
   xmlns:rdf="http://www.w3.org/1999/02/22-rdf-syntax-ns#"
   xmlns:svg="http://www.w3.org/2000/svg"
   xmlns="http://www.w3.org/2000/svg"
   xmlns:sodipodi="http://sodipodi.sourceforge.net/DTD/sodipodi-0.dtd"
   xmlns:inkscape="http://www.inkscape.org/namespaces/inkscape"
   viewBox="0 0 32 32"
   version="1.1"
   id="svg6"
   sodipodi:docname="ungroup.svg"
   inkscape:export-filename="/home/jupiter007/Libreoffice yaru theme fullcolor/build/cmd/32/ungroup.png"
   inkscape:export-xdpi="96"
   inkscape:export-ydpi="96"
   inkscape:version="0.92.5 (2060ec1f9f, 2020-04-08)">
  <metadata
     id="metadata12">
    <rdf:RDF>
      <cc:Work
         rdf:about="">
        <dc:format>image/svg+xml</dc:format>
        <dc:type
           rdf:resource="http://purl.org/dc/dcmitype/StillImage" />
      </cc:Work>
    </rdf:RDF>
  </metadata>
  <defs
     id="defs10" />
  <sodipodi:namedview
     pagecolor="#ffffff"
     bordercolor="#666666"
     borderopacity="1"
     objecttolerance="10"
     gridtolerance="10"
     guidetolerance="10"
     inkscape:pageopacity="0"
     inkscape:pageshadow="2"
     inkscape:window-width="1920"
     inkscape:window-height="1011"
     id="namedview8"
     showgrid="true"
     inkscape:zoom="20.85965"
     inkscape:cx="5.1414118"
     inkscape:cy="17.567848"
     inkscape:window-x="0"
     inkscape:window-y="32"
     inkscape:window-maximized="1"
     inkscape:current-layer="svg6">
    <inkscape:grid
       type="xygrid"
       id="grid848" />
  </sodipodi:namedview>
  <path
     inkscape:connector-curvature="0"
     style="fill:#232629"
     d="m 21,4.0000007 v 4 1 h 1 5 1 v -4 -1 h -1 -5 z"
     id="path852" />
  <path
     inkscape:connector-curvature="0"
     style="fill:#6d6d6d;fill-opacity:1"
     d="m 5.9999999,4.0000007 v 2 3 h 2 v -3 H 19 v -2 z"
     id="path850" />
  <path
     inkscape:connector-curvature="0"
     style="fill:#232629"
     d="m 21,10 v 1 3 1 h 1 5 1 v -4 -1 z"
     id="path846" />
  <path
     inkscape:connector-curvature="0"
     style="fill:#232629"
     d="m 21,17 v 4 1 h 1 5 1 v -5 h -1 -5 z"
     id="path842" />
  <path
     inkscape:connector-curvature="0"
     style="fill:#6d6d6d;fill-opacity:1"
     d="m 5.9999999,23 v 3 2 H 19 V 26 H 7.9999999 v -3 z"
     id="path838" />
  <path
     inkscape:connector-curvature="0"
     style="fill:#232629"
     d="m 21,23 v 1 3 1 h 1 5 1 v -4 -1 z"
     id="path836" />
  <path
     d="M 2.7573592,13.171573 5.5857864,16 2.7573592,18.828427 4.1715728,20.242641 6.9999999,17.414214 9.828427,20.242641 11.242641,18.828427 8.4142135,16 11.242641,13.171573 9.8284271,11.757359 6.9999999,14.585786 4.1715728,11.757359 Z"
     id="path4-8"
     inkscape:connector-curvature="0"
     style="fill:#c7162b;fill-opacity:1"
     sodipodi:nodetypes="ccccccccccccc" />
  <rect
     style="opacity:1;fill:#ffffff;fill-opacity:1;fill-rule:evenodd;stroke:none;stroke-width:2;stroke-linecap:butt;stroke-linejoin:round;stroke-miterlimit:4;stroke-dasharray:none;stroke-opacity:1"
     id="rect824"
     width="5"
     height="3"
     x="22"
     y="5"
     ry="0" />
  <rect
     ry="0"
     y="11"
     x="22"
     height="3"
     width="5"
     id="rect826"
     style="opacity:1;fill:#ffffff;fill-opacity:1;fill-rule:evenodd;stroke:none;stroke-width:2;stroke-linecap:butt;stroke-linejoin:round;stroke-miterlimit:4;stroke-dasharray:none;stroke-opacity:1" />
  <rect
     style="opacity:1;fill:#ffffff;fill-opacity:1;fill-rule:evenodd;stroke:none;stroke-width:2;stroke-linecap:butt;stroke-linejoin:round;stroke-miterlimit:4;stroke-dasharray:none;stroke-opacity:1"
     id="rect828"
     width="5"
     height="3"
     x="22"
     y="18"
     ry="0" />
  <rect
     ry="0"
     y="24"
     x="22"
     height="3"
     width="5"
     id="rect830"
     style="opacity:1;fill:#ffffff;fill-opacity:1;fill-rule:evenodd;stroke:none;stroke-width:2;stroke-linecap:butt;stroke-linejoin:round;stroke-miterlimit:4;stroke-dasharray:none;stroke-opacity:1" />
</svg>

<svg xmlns="http://www.w3.org/2000/svg" viewBox="0 0 32 32"><path d="M21 4v5h7V4h-6z" fill="#232629"/><path d="M6 4v5h2V6h11V4z" fill="#6d6d6d"/><path d="M21 10v5h7v-5zM21 17v5h7v-5h-6z" fill="#232629"/><path d="M6 23v5h13v-2H8v-3z" fill="#6d6d6d"/><path d="M21 23v5h7v-5z" fill="#232629"/><path d="M2.757 13.172L5.586 16l-2.829 2.828 1.415 1.415L7 17.414l2.828 2.829 1.415-1.415L8.414 16l2.829-2.828-1.415-1.415L7 14.586l-2.828-2.829z" fill="#c7162b"/><rect width="5" height="3" x="22" y="5" ry="0" fill="#fff" fill-rule="evenodd"/><rect ry="0" y="11" x="22" height="3" width="5" fill="#fff" fill-rule="evenodd"/><rect width="5" height="3" x="22" y="18" ry="0" fill="#fff" fill-rule="evenodd"/><rect ry="0" y="24" x="22" height="3" width="5" fill="#fff" fill-rule="evenodd"/></svg>
